images/50571411.svg

<?xml version="1.0" encoding="UTF-8"?>
<svg xmlns="http://www.w3.org/2000/svg" xmlns:xlink="http://www.w3.org/1999/xlink" width="300pt" height="300pt" viewBox="0 0 300 300" version="1.1">
<defs>
<g>
<symbol overflow="visible" id="glyph0-0">
<path style="stroke:none;" d="M 0.453125 1.59375 L 0.453125 -6.34375 L 4.953125 -6.34375 L 4.953125 1.59375 Z M 0.953125 1.09375 L 4.453125 1.09375 L 4.453125 -5.84375 L 0.953125 -5.84375 Z M 0.953125 1.09375 "/>
</symbol>
<symbol overflow="visible" id="glyph0-1">
<path style="stroke:none;" d="M 3.546875 -5.953125 C 2.898438 -5.953125 2.382812 -5.710938 2 -5.234375 C 1.625 -4.753906 1.4375 -4.101562 1.4375 -3.28125 C 1.4375 -2.445312 1.625 -1.789062 2 -1.3125 C 2.382812 -0.832031 2.898438 -0.59375 3.546875 -0.59375 C 4.191406 -0.59375 4.703125 -0.832031 5.078125 -1.3125 C 5.453125 -1.789062 5.640625 -2.445312 5.640625 -3.28125 C 5.640625 -4.101562 5.453125 -4.753906 5.078125 -5.234375 C 4.703125 -5.710938 4.191406 -5.953125 3.546875 -5.953125 Z M 3.546875 -6.6875 C 4.460938 -6.6875 5.195312 -6.375 5.75 -5.75 C 6.300781 -5.132812 6.578125 -4.3125 6.578125 -3.28125 C 6.578125 -2.238281 6.300781 -1.410156 5.75 -0.796875 C 5.195312 -0.179688 4.460938 0.125 3.546875 0.125 C 2.617188 0.125 1.878906 -0.179688 1.328125 -0.796875 C 0.773438 -1.410156 0.5 -2.238281 0.5 -3.28125 C 0.5 -4.3125 0.773438 -5.132812 1.328125 -5.75 C 1.878906 -6.375 2.617188 -6.6875 3.546875 -6.6875 Z M 3.546875 -6.6875 "/>
</symbol>
<symbol overflow="visible" id="glyph0-2">
<path style="stroke:none;" d="M 0.890625 -6.5625 L 2.078125 -6.5625 L 4.984375 -1.078125 L 4.984375 -6.5625 L 5.84375 -6.5625 L 5.84375 0 L 4.65625 0 L 1.75 -5.484375 L 1.75 0 L 0.890625 0 Z M 0.890625 -6.5625 "/>
</symbol>
<symbol overflow="visible" id="glyph0-3">
<path style="stroke:none;" d="M 0.890625 -6.5625 L 1.765625 -6.5625 L 1.765625 -3.875 L 5 -3.875 L 5 -6.5625 L 5.890625 -6.5625 L 5.890625 0 L 5 0 L 5 -3.125 L 1.765625 -3.125 L 1.765625 0 L 0.890625 0 Z M 0.890625 -6.5625 "/>
</symbol>
</g>
</defs>
<g id="surface21213">
<rect x="0" y="0" width="300" height="300" style="fill:rgb(100%,100%,100%);fill-opacity:1;stroke:none;"/>
<path style="fill:none;stroke-width:1.2;stroke-linecap:butt;stroke-linejoin:miter;stroke:rgb(100%,0%,0%);stroke-opacity:1;stroke-miterlimit:10;" d="M 152.414062 168.640625 L 142.804688 163.609375 "/>
<path style="fill:none;stroke-width:1.2;stroke-linecap:butt;stroke-linejoin:miter;stroke:rgb(0%,0%,0%);stroke-opacity:1;stroke-miterlimit:10;" d="M 142.804688 163.609375 L 133.195312 158.578125 "/>
<path style="fill:none;stroke-width:1.2;stroke-linecap:butt;stroke-linejoin:miter;stroke:rgb(100%,0%,0%);stroke-opacity:1;stroke-miterlimit:10;" d="M 150.042969 173.164062 L 140.4375 168.132812 "/>
<path style="fill:none;stroke-width:1.2;stroke-linecap:butt;stroke-linejoin:miter;stroke:rgb(0%,0%,0%);stroke-opacity:1;stroke-miterlimit:10;" d="M 140.4375 168.132812 L 130.828125 163.097656 "/>
<path style=" stroke:none;fill-rule:nonzero;fill:rgb(100%,100%,100%);fill-opacity:1;" d="M 147.230469 165.402344 L 155.230469 165.402344 L 155.230469 176.402344 L 147.230469 176.402344 Z M 147.230469 165.402344 "/>
<g style="fill:rgb(100%,0%,0%);fill-opacity:1;">
  <use xlink:href="#glyph0-1" x="147.230469" y="174.06543"/>
</g>
<path style="fill:none;stroke-width:1.2;stroke-linecap:butt;stroke-linejoin:miter;stroke:rgb(0%,0%,0%);stroke-opacity:1;stroke-miterlimit:10;" d="M 132.011719 160.835938 L 131.566406 150 "/>
<path style="fill:none;stroke-width:1.2;stroke-linecap:butt;stroke-linejoin:miter;stroke:rgb(0%,0%,100%);stroke-opacity:1;stroke-miterlimit:10;" d="M 131.566406 150 L 131.121094 139.164062 "/>
<path style="fill:none;stroke-width:1.2;stroke-linecap:butt;stroke-linejoin:miter;stroke:rgb(0%,0%,0%);stroke-opacity:1;stroke-miterlimit:10;" d="M 132.011719 160.835938 L 113.6875 172.449219 "/>
<path style="fill:none;stroke-width:1.2;stroke-linecap:butt;stroke-linejoin:miter;stroke:rgb(0%,0%,100%);stroke-opacity:1;stroke-miterlimit:10;" d="M 131.121094 139.164062 L 121.511719 134.128906 "/>
<path style="fill:none;stroke-width:1.2;stroke-linecap:butt;stroke-linejoin:miter;stroke:rgb(0%,0%,0%);stroke-opacity:1;stroke-miterlimit:10;" d="M 121.511719 134.128906 L 111.902344 129.097656 "/>
<path style="fill:none;stroke-width:1.2;stroke-linecap:butt;stroke-linejoin:miter;stroke:rgb(0%,0%,100%);stroke-opacity:1;stroke-miterlimit:10;" d="M 131.121094 139.164062 L 140.28125 133.355469 "/>
<path style="fill:none;stroke-width:1.2;stroke-linecap:butt;stroke-linejoin:miter;stroke:rgb(0%,0%,0%);stroke-opacity:1;stroke-miterlimit:10;" d="M 140.28125 133.355469 L 149.445312 127.550781 "/>
<path style=" stroke:none;fill-rule:nonzero;fill:rgb(100%,100%,100%);fill-opacity:1;" d="M 128.121094 133.664062 L 135.121094 133.664062 L 135.121094 144.664062 L 128.121094 144.664062 Z M 128.121094 133.664062 "/>
<g style="fill:rgb(0%,0%,100%);fill-opacity:1;">
  <use xlink:href="#glyph0-2" x="128.121094" y="142.327148"/>
</g>
<path style="fill:none;stroke-width:1.2;stroke-linecap:butt;stroke-linejoin:miter;stroke:rgb(0%,0%,0%);stroke-opacity:1;stroke-miterlimit:10;" d="M 111.902344 129.097656 L 93.578125 140.707031 "/>
<path style="fill:none;stroke-width:1.2;stroke-linecap:butt;stroke-linejoin:miter;stroke:rgb(0%,0%,0%);stroke-opacity:1;stroke-miterlimit:10;" d="M 149.445312 127.550781 L 159.054688 132.585938 "/>
<path style="fill:none;stroke-width:1.2;stroke-linecap:butt;stroke-linejoin:miter;stroke:rgb(0%,0%,100%);stroke-opacity:1;stroke-miterlimit:10;" d="M 159.054688 132.585938 L 168.664062 137.617188 "/>
<path style="fill:none;stroke-width:1.2;stroke-linecap:butt;stroke-linejoin:miter;stroke:rgb(0%,0%,0%);stroke-opacity:1;stroke-miterlimit:10;" d="M 153.734375 124.035156 L 161.421875 128.0625 "/>
<path style="fill:none;stroke-width:1.2;stroke-linecap:butt;stroke-linejoin:miter;stroke:rgb(0%,0%,100%);stroke-opacity:1;stroke-miterlimit:10;" d="M 161.421875 128.0625 L 169.109375 132.089844 "/>
<path style="fill:none;stroke-width:1.2;stroke-linecap:butt;stroke-linejoin:miter;stroke:rgb(0%,0%,0%);stroke-opacity:1;stroke-miterlimit:10;" d="M 148.554688 105.875 L 149.445312 127.550781 "/>
<path style="fill:none;stroke-width:1.2;stroke-linecap:butt;stroke-linejoin:miter;stroke:rgb(0%,0%,100%);stroke-opacity:1;stroke-miterlimit:10;" d="M 168.664062 137.617188 L 177.824219 131.8125 "/>
<path style="fill:none;stroke-width:1.2;stroke-linecap:butt;stroke-linejoin:miter;stroke:rgb(0%,0%,0%);stroke-opacity:1;stroke-miterlimit:10;" d="M 177.824219 131.8125 L 186.988281 126.007812 "/>
<path style=" stroke:none;fill-rule:nonzero;fill:rgb(100%,100%,100%);fill-opacity:1;" d="M 165.664062 132.117188 L 172.664062 132.117188 L 172.664062 143.117188 L 165.664062 143.117188 Z M 165.664062 132.117188 "/>
<g style="fill:rgb(0%,0%,100%);fill-opacity:1;">
  <use xlink:href="#glyph0-2" x="165.664062" y="140.780273"/>
</g>
<path style="fill:none;stroke-width:1.2;stroke-linecap:butt;stroke-linejoin:miter;stroke:rgb(0%,0%,0%);stroke-opacity:1;stroke-miterlimit:10;" d="M 186.988281 126.007812 L 186.542969 115.171875 "/>
<path style="fill:none;stroke-width:1.2;stroke-linecap:butt;stroke-linejoin:miter;stroke:rgb(0%,0%,100%);stroke-opacity:1;stroke-miterlimit:10;" d="M 186.542969 115.171875 L 186.097656 104.332031 "/>
<path style="fill:none;stroke-width:1.2;stroke-linecap:butt;stroke-linejoin:miter;stroke:rgb(0%,0%,0%);stroke-opacity:1;stroke-miterlimit:10;" d="M 181.800781 124.050781 L 181.441406 115.378906 "/>
<path style="fill:none;stroke-width:1.2;stroke-linecap:butt;stroke-linejoin:miter;stroke:rgb(0%,0%,100%);stroke-opacity:1;stroke-miterlimit:10;" d="M 181.441406 115.378906 L 181.085938 106.710938 "/>
<path style="fill:none;stroke-width:1.2;stroke-linecap:butt;stroke-linejoin:miter;stroke:rgb(0%,0%,0%);stroke-opacity:1;stroke-miterlimit:10;" d="M 186.988281 126.007812 L 196.597656 131.039062 "/>
<path style="fill:none;stroke-width:1.2;stroke-linecap:butt;stroke-linejoin:miter;stroke:rgb(0%,0%,100%);stroke-opacity:1;stroke-miterlimit:10;" d="M 196.597656 131.039062 L 206.207031 136.074219 "/>
<path style="fill:none;stroke-width:1.2;stroke-linecap:butt;stroke-linejoin:miter;stroke:rgb(0%,0%,100%);stroke-opacity:1;stroke-miterlimit:10;" d="M 186.097656 104.332031 L 176.488281 99.300781 "/>
<path style="fill:none;stroke-width:1.2;stroke-linecap:butt;stroke-linejoin:miter;stroke:rgb(0%,0%,0%);stroke-opacity:1;stroke-miterlimit:10;" d="M 176.488281 99.300781 L 166.878906 94.265625 "/>
<path style=" stroke:none;fill-rule:nonzero;fill:rgb(100%,100%,100%);fill-opacity:1;" d="M 183.097656 98.832031 L 190.097656 98.832031 L 190.097656 109.832031 L 183.097656 109.832031 Z M 183.097656 98.832031 "/>
<g style="fill:rgb(0%,0%,100%);fill-opacity:1;">
  <use xlink:href="#glyph0-2" x="183.097656" y="107.495117"/>
</g>
<path style="fill:none;stroke-width:1.2;stroke-linecap:butt;stroke-linejoin:miter;stroke:rgb(0%,0%,0%);stroke-opacity:1;stroke-miterlimit:10;" d="M 166.878906 94.265625 L 148.554688 105.875 "/>
<path style="fill:none;stroke-width:1.2;stroke-linecap:butt;stroke-linejoin:miter;stroke:rgb(0%,0%,0%);stroke-opacity:1;stroke-miterlimit:10;" d="M 167.777344 99.738281 L 153.117188 109.027344 "/>
<path style="fill:none;stroke-width:1;stroke-linecap:butt;stroke-linejoin:miter;stroke:rgb(0%,0%,0%);stroke-opacity:1;stroke-miterlimit:10;" d="M 207.097656 157.75 L 207.097656 157.75 M 207.496094 154.777344 L 206.457031 154.820312 M 207.898438 151.800781 L 205.8125 151.886719 M 208.296875 148.828125 L 205.171875 148.957031 M 208.695312 145.855469 L 204.527344 146.027344 M 209.09375 142.882812 L 203.886719 143.097656 M 209.496094 139.910156 L 203.242188 140.167969 M 209.894531 136.9375 L 202.601562 137.234375 M 210.03125 135.914062 L 202.382812 136.230469 "/>
<path style=" stroke:none;fill-rule:nonzero;fill:rgb(100%,100%,100%);fill-opacity:1;" d="M 199.207031 130.574219 L 213.207031 130.574219 L 213.207031 141.574219 L 199.207031 141.574219 Z M 199.207031 130.574219 "/>
<g style="fill:rgb(0%,0%,100%);fill-opacity:1;">
  <use xlink:href="#glyph0-2" x="199.207031" y="139.237305"/>
  <use xlink:href="#glyph0-3" x="206.18457" y="139.237305"/>
</g>
<path style="fill:none;stroke-width:1.2;stroke-linecap:butt;stroke-linejoin:miter;stroke:rgb(0%,0%,0%);stroke-opacity:1;stroke-miterlimit:10;" d="M 207.097656 157.75 L 188.773438 169.359375 "/>
<path style="fill:none;stroke-width:1.2;stroke-linecap:butt;stroke-linejoin:miter;stroke:rgb(0%,0%,0%);stroke-opacity:1;stroke-miterlimit:10;" d="M 207.097656 157.75 L 226.316406 167.8125 "/>
<path style="fill:none;stroke-width:1.2;stroke-linecap:butt;stroke-linejoin:miter;stroke:rgb(0%,0%,0%);stroke-opacity:1;stroke-miterlimit:10;" d="M 226.316406 167.8125 L 227.207031 189.488281 "/>
<path style="fill:none;stroke-width:1.2;stroke-linecap:butt;stroke-linejoin:miter;stroke:rgb(0%,0%,0%);stroke-opacity:1;stroke-miterlimit:10;" d="M 231.503906 169.773438 L 232.21875 187.113281 "/>
<path style="fill:none;stroke-width:1.2;stroke-linecap:butt;stroke-linejoin:miter;stroke:rgb(0%,0%,0%);stroke-opacity:1;stroke-miterlimit:10;" d="M 244.640625 156.203125 L 226.316406 167.8125 "/>
<path style="fill:none;stroke-width:1.2;stroke-linecap:butt;stroke-linejoin:miter;stroke:rgb(0%,0%,0%);stroke-opacity:1;stroke-miterlimit:10;" d="M 227.207031 189.488281 L 246.425781 199.554688 "/>
<path style="fill:none;stroke-width:1.2;stroke-linecap:butt;stroke-linejoin:miter;stroke:rgb(0%,0%,0%);stroke-opacity:1;stroke-miterlimit:10;" d="M 246.425781 199.554688 L 264.75 187.945312 "/>
<path style="fill:none;stroke-width:1.2;stroke-linecap:butt;stroke-linejoin:miter;stroke:rgb(0%,0%,0%);stroke-opacity:1;stroke-miterlimit:10;" d="M 245.523438 194.082031 L 260.1875 184.792969 "/>
<path style="fill:none;stroke-width:1.2;stroke-linecap:butt;stroke-linejoin:miter;stroke:rgb(0%,0%,0%);stroke-opacity:1;stroke-miterlimit:10;" d="M 264.75 187.945312 L 263.859375 166.269531 "/>
<path style="fill:none;stroke-width:1.2;stroke-linecap:butt;stroke-linejoin:miter;stroke:rgb(0%,0%,0%);stroke-opacity:1;stroke-miterlimit:10;" d="M 263.859375 166.269531 L 244.640625 156.203125 "/>
<path style="fill:none;stroke-width:1.2;stroke-linecap:butt;stroke-linejoin:miter;stroke:rgb(0%,0%,0%);stroke-opacity:1;stroke-miterlimit:10;" d="M 259.566406 169.785156 L 244.195312 161.734375 "/>
<path style="fill:none;stroke-width:1.2;stroke-linecap:butt;stroke-linejoin:miter;stroke:rgb(0%,0%,0%);stroke-opacity:1;stroke-miterlimit:10;" d="M 113.6875 172.449219 L 94.46875 162.382812 "/>
<path style="fill:none;stroke-width:1.2;stroke-linecap:butt;stroke-linejoin:miter;stroke:rgb(0%,0%,0%);stroke-opacity:1;stroke-miterlimit:10;" d="M 109.394531 175.964844 L 94.023438 167.910156 "/>
<path style="fill:none;stroke-width:1.2;stroke-linecap:butt;stroke-linejoin:miter;stroke:rgb(0%,0%,0%);stroke-opacity:1;stroke-miterlimit:10;" d="M 114.578125 194.125 L 113.6875 172.449219 "/>
<path style="fill:none;stroke-width:1.2;stroke-linecap:butt;stroke-linejoin:miter;stroke:rgb(0%,0%,0%);stroke-opacity:1;stroke-miterlimit:10;" d="M 94.46875 162.382812 L 76.144531 173.992188 "/>
<path style="fill:none;stroke-width:1.2;stroke-linecap:butt;stroke-linejoin:miter;stroke:rgb(0%,0%,0%);stroke-opacity:1;stroke-miterlimit:10;" d="M 76.144531 173.992188 L 77.035156 195.667969 "/>
<path style="fill:none;stroke-width:1.2;stroke-linecap:butt;stroke-linejoin:miter;stroke:rgb(0%,0%,0%);stroke-opacity:1;stroke-miterlimit:10;" d="M 81.332031 175.949219 L 82.046875 193.289062 "/>
<path style="fill:none;stroke-width:1.2;stroke-linecap:butt;stroke-linejoin:miter;stroke:rgb(0%,0%,0%);stroke-opacity:1;stroke-miterlimit:10;" d="M 76.144531 173.992188 L 56.925781 163.925781 "/>
<path style="fill:none;stroke-width:1.2;stroke-linecap:butt;stroke-linejoin:miter;stroke:rgb(0%,0%,0%);stroke-opacity:1;stroke-miterlimit:10;" d="M 77.035156 195.667969 L 96.253906 205.734375 "/>
<path style="fill:none;stroke-width:1.2;stroke-linecap:butt;stroke-linejoin:miter;stroke:rgb(0%,0%,0%);stroke-opacity:1;stroke-miterlimit:10;" d="M 96.253906 205.734375 L 114.578125 194.125 "/>
<path style="fill:none;stroke-width:1.2;stroke-linecap:butt;stroke-linejoin:miter;stroke:rgb(0%,0%,0%);stroke-opacity:1;stroke-miterlimit:10;" d="M 95.351562 200.261719 L 110.011719 190.972656 "/>
<path style="fill:none;stroke-width:1.2;stroke-linecap:butt;stroke-linejoin:miter;stroke:rgb(0%,0%,0%);stroke-opacity:1;stroke-miterlimit:10;" d="M 56.925781 163.925781 L 35.25 164.820312 "/>
<path style="fill:none;stroke-width:1.2;stroke-linecap:butt;stroke-linejoin:miter;stroke:rgb(0%,0%,0%);stroke-opacity:1;stroke-miterlimit:10;" d="M 45.316406 145.601562 L 56.925781 163.925781 "/>
<path style="fill:none;stroke-width:1.2;stroke-linecap:butt;stroke-linejoin:miter;stroke:rgb(0%,0%,0%);stroke-opacity:1;stroke-miterlimit:10;" d="M 35.25 164.820312 L 45.316406 145.601562 "/>
</g>
</svg>

<svg xmlns="http://www.w3.org/2000/svg" xmlns:xlink="http://www.w3.org/1999/xlink" width="300pt" height="300pt" viewBox="0 0 300 300"><defs><symbol overflow="visible"><path d="M.453 1.594v-7.938h4.5v7.938zm.5-.5h3.5v-6.938h-3.5zm0 0"/></symbol><symbol overflow="visible" id="a"><path d="M3.547-5.953c-.65 0-1.164.242-1.547.72-.375.48-.563 1.13-.563 1.952 0 .835.188 1.49.563 1.967.383.48.898.72 1.547.72.644 0 1.156-.24 1.53-.72.376-.476.564-1.132.564-1.968 0-.822-.187-1.474-.562-1.954-.375-.477-.887-.72-1.53-.72zm0-.734c.914 0 1.648.312 2.203.937.55.617.828 1.438.828 2.47 0 1.042-.277 1.87-.828 2.483-.555.617-1.29.922-2.203.922-.93 0-1.668-.305-2.22-.922C.774-1.41.5-2.237.5-3.28c0-1.033.273-1.853.828-2.47.55-.625 1.29-.938 2.22-.938zm0 0"/></symbol><symbol overflow="visible" id="b"><path d="M.89-6.563H2.08l2.906 5.485v-5.484h.86V0H4.656L1.75-5.484V0H.89zm0 0"/></symbol><symbol overflow="visible" id="c"><path d="M.89-6.563h.876v2.688H5v-2.688h.89V0H5v-3.125H1.766V0H.89zm0 0"/></symbol></defs><g><path fill="#fff" d="M0 0h300v300H0z"/><path d="M152.414 168.64l-9.61-5.03" stroke-width="1.2" stroke="#f00" stroke-miterlimit="10" fill="none"/><path d="M142.805 163.61l-9.61-5.032" stroke-width="1.2" stroke="#000" stroke-miterlimit="10" fill="none"/><path d="M150.043 173.164l-9.606-5.03" stroke-width="1.2" stroke="#f00" stroke-miterlimit="10" fill="none"/><path d="M140.438 168.133l-9.61-5.035" stroke-width="1.2" stroke="#000" stroke-miterlimit="10" fill="none"/><path d="M147.23 165.402h8v11h-8zm0 0" fill="#fff"/><use xlink:href="#a" x="147.23" y="174.065" fill="#f00"/><path d="M132.012 160.836L131.566 150" stroke-width="1.2" stroke="#000" stroke-miterlimit="10" fill="none"/><path d="M131.566 150l-.445-10.836" stroke-width="1.2" stroke="#00f" stroke-miterlimit="10" fill="none"/><path d="M132.012 160.836l-18.325 11.613" stroke-width="1.2" stroke="#000" stroke-miterlimit="10" fill="none"/><path d="M131.12 139.164l-9.608-5.035" stroke-width="1.2" stroke="#00f" stroke-miterlimit="10" fill="none"/><path d="M121.512 134.13l-9.61-5.032" stroke-width="1.2" stroke="#000" stroke-miterlimit="10" fill="none"/><path d="M131.12 139.164l9.16-5.81" stroke-width="1.2" stroke="#00f" stroke-miterlimit="10" fill="none"/><path d="M140.28 133.355l9.165-5.804" stroke-width="1.2" stroke="#000" stroke-miterlimit="10" fill="none"/><path d="M128.12 133.664h7v11h-7zm0 0" fill="#fff"/><use xlink:href="#b" x="128.121" y="142.327" fill="#00f"/><path d="M111.902 129.098l-18.324 11.61M149.445 127.55l9.61 5.036" stroke-width="1.2" stroke="#000" stroke-miterlimit="10" fill="none"/><path d="M159.055 132.586l9.61 5.03" stroke-width="1.2" stroke="#00f" stroke-miterlimit="10" fill="none"/><path d="M153.734 124.035l7.688 4.028" stroke-width="1.2" stroke="#000" stroke-miterlimit="10" fill="none"/><path d="M161.422 128.063l7.687 4.027" stroke-width="1.2" stroke="#00f" stroke-miterlimit="10" fill="none"/><path d="M148.555 105.875l.89 21.676" stroke-width="1.2" stroke="#000" stroke-miterlimit="10" fill="none"/><path d="M168.664 137.617l9.16-5.804" stroke-width="1.2" stroke="#00f" stroke-miterlimit="10" fill="none"/><path d="M177.824 131.813l9.164-5.805" stroke-width="1.2" stroke="#000" stroke-miterlimit="10" fill="none"/><path d="M165.664 132.117h7v11h-7zm0 0" fill="#fff"/><use xlink:href="#b" x="165.664" y="140.78" fill="#00f"/><path d="M186.988 126.008l-.445-10.836" stroke-width="1.2" stroke="#000" stroke-miterlimit="10" fill="none"/><path d="M186.543 115.172l-.445-10.84" stroke-width="1.2" stroke="#00f" stroke-miterlimit="10" fill="none"/><path d="M181.8 124.05l-.36-8.67" stroke-width="1.2" stroke="#000" stroke-miterlimit="10" fill="none"/><path d="M181.44 115.38l-.354-8.67" stroke-width="1.2" stroke="#00f" stroke-miterlimit="10" fill="none"/><path d="M186.988 126.008l9.61 5.03" stroke-width="1.2" stroke="#000" stroke-miterlimit="10" fill="none"/><path d="M196.598 131.04l9.61 5.034M186.098 104.332l-9.61-5.03" stroke-width="1.2" stroke="#00f" stroke-miterlimit="10" fill="none"/><path d="M176.488 99.3l-9.61-5.034" stroke-width="1.2" stroke="#000" stroke-miterlimit="10" fill="none"/><path d="M183.098 98.832h7v11h-7zm0 0" fill="#fff"/><use xlink:href="#b" x="183.098" y="107.495" fill="#00f"/><path d="M166.88 94.266l-18.325 11.61M167.777 99.738l-14.66 9.29" stroke-width="1.2" stroke="#000" stroke-miterlimit="10" fill="none"/><path d="M207.098 157.75m.398-2.973l-1.04.043m1.442-3.02l-2.085.087m2.484-3.06l-3.125.13m3.523-3.102l-4.168.172m4.567-3.144l-5.207.215m5.61-3.188l-6.255.258m6.653-3.23l-7.293.296m7.43-1.32l-7.65.316" stroke="#000" stroke-miterlimit="10" fill="none"/><path d="M199.207 130.574h14v11h-14zm0 0" fill="#fff"/><g fill="#00f"><use xlink:href="#b" x="199.207" y="139.237"/><use xlink:href="#c" x="206.185" y="139.237"/></g><path d="M207.098 157.75l-18.325 11.61M207.098 157.75l19.218 10.063M226.316 167.813l.89 21.675M231.504 169.773l.715 17.34M244.64 156.203l-18.324 11.61M227.207 189.488l19.22 10.067M246.426 199.555l18.324-11.61M245.523 194.082l14.665-9.29M264.75 187.945l-.89-21.675M263.86 166.27l-19.22-10.067M259.566 169.785l-15.37-8.05M113.688 172.45l-19.22-10.067M109.395 175.965l-15.372-8.055M114.578 194.125l-.89-21.676M94.47 162.383l-18.325 11.61M76.145 173.992l.89 21.676M81.332 175.95l.715 17.34M76.145 173.992l-19.22-10.066M77.035 195.668l19.22 10.066M96.254 205.734l18.324-11.61M95.352 200.262l14.66-9.29M56.926 163.926l-21.676.894M45.316 145.602l11.61 18.324M35.25 164.82l10.066-19.218" stroke-width="1.2" stroke="#000" stroke-miterlimit="10" fill="none"/></g></svg>
